contributed-vectors/quick_settings.svg

<svg xmlns="http://www.w3.org/2000/svg" xml:space="preserve" id="svg16" version="1.1" viewBox="0 0 192 192"><defs id="defs4"><style id="style2">.a{fill:none;stroke:#b1b5bd;stroke-linecap:round;stroke-linejoin:round;isolation:isolate;opacity:.63}</style></defs><circle id="circle8" cx="96" cy="96" r="88" class="a" style="display:inline;opacity:1;fill:#56595b;stroke:none"/><rect id="rect6-3" width="52" height="52" x="99" y="99" class="a" rx="8.525" ry="8.525" style="opacity:1;isolation:isolate;fill:#728dbe;fill-opacity:1;stroke:none;stroke-width:.999997;stroke-linecap:round;stroke-linejoin:round"/><g id="g8433" style="fill:#000;stroke-width:.666667" transform="matrix(1.5 0 0 1.5 107 107)"><path id="path8421" fill="none" d="M0 0h24v24H0Z" style="stroke-width:.444444"/><path id="path8423" d="M12.09 2.91C10.08.9 7.07.49 4.65 1.67L8.28 5.3c.39.39.39 1.02 0 1.41L6.69 8.3c-.39.4-1.02.4-1.41 0L1.65 4.67C.48 7.1.89 10.09 2.9 12.1a6.507 6.507 0 0 0 6.89 1.48l7.96 7.96a2.613 2.613 0 0 0 3.71 0 2.613 2.613 0 0 0 0-3.71L13.54 9.9c.92-2.34.44-5.1-1.45-6.99Z" style="fill:#fff;stroke-width:.666667"/></g><g id="g8418" style="fill:#000;stroke-width:.666667" transform="matrix(1.5 0 0 1.5 48.985 107)"><path id="path8406" fill="none" d="M.01 0h24v24h-24z" style="stroke-width:.390244"/><path id="path8408" d="M12 4V2.21c0-.45-.54-.67-.85-.35l-2.8 2.79c-.2.2-.2.51 0 .71l2.79 2.79c.32.31.86.09.86-.36V6c3.31 0 6 2.69 6 6 0 .79-.15 1.56-.44 2.25-.15.36-.04.77.23 1.04.51.51 1.37.33 1.64-.34.37-.91.57-1.91.57-2.95 0-4.42-3.58-8-8-8Zm0 14c-3.31 0-6-2.69-6-6 0-.79.15-1.56.44-2.25.15-.36.04-.77-.23-1.04-.51-.51-1.37-.33-1.64.34C4.2 9.96 4 10.96 4 12c0 4.42 3.58 8 8 8v1.79c0 .45.54.67.85.35l2.79-2.79c.2-.2.2-.51 0-.71l-2.79-2.79a.5.5 0 0 0-.85.36Z" style="fill:#d8d8d8;stroke-width:.666667"/></g><g id="g8404" style="fill:#000;stroke-width:.666667" transform="matrix(1.5 0 0 1.5 107 48.25)"><g id="g8387" style="stroke-width:.666667"><path id="rect8383" fill="none" d="M0 0h24v24H0z" style="stroke-width:.390244"/><path id="rect8385" fill="none" d="M0 0h24v24H0z" style="stroke-width:.390244"/></g><g id="g8391" style="fill:#d8d8d8;stroke-width:.666667"><path id="path8389" d="M17 5v16c0 .55-.45 1-1 1H8c-.55 0-1-.45-1-1V5c0-.55.45-1 1-1h2V3c0-.55.45-1 1-1h2c.55 0 1 .45 1 1v1h2c.55 0 1 .45 1 1zm-2 1H9v4h6z" style="fill:#d8d8d8;stroke-width:.666667"/></g></g><g id="g8381" style="fill:#000;stroke-width:.666667" transform="matrix(1.5 0 0 1.5 49 49)"><path id="path8369" fill="none" d="M0 0h24v24H0Z" style="stroke-width:.390244"/><path id="path8371" d="M12 13c-1.1 0-2 .9-2 2s.9 2 2 2 2-.9 2-2-.9-2-2-2zm6-5h-1V6c0-2.76-2.24-5-5-5-2.28 0-4.27 1.54-4.84 3.75-.14.54.18 1.08.72 1.22a1 1 0 0 0 1.22-.72A2.996 2.996 0 0 1 12 3c1.65 0 3 1.35 3 3v2H6c-1.1 0-2 .9-2 2v10c0 1.1.9 2 2 2h12c1.1 0 2-.9 2-2V10c0-1.1-.9-2-2-2Zm0 11c0 .55-.45 1-1 1H7c-.55 0-1-.45-1-1v-8c0-.55.45-1 1-1h10c.55 0 1 .45 1 1z" style="fill:#d8d8d8;stroke-width:.666667"/></g></svg>

<?xml version="1.0" encoding="UTF-8" standalone="no"?>
<svg
   viewBox="0 0 192 192"
   version="1.1"
   id="svg16"
   sodipodi:docname="quick_settings.svg"
   xml:space="preserve"
   inkscape:export-filename="quick_settings.png"
   inkscape:export-xdpi="96"
   inkscape:export-ydpi="96"
   inkscape:version="1.2.1 (9c6d41e410, 2022-07-14)"
   xmlns:inkscape="http://www.inkscape.org/namespaces/inkscape"
   xmlns:sodipodi="http://sodipodi.sourceforge.net/DTD/sodipodi-0.dtd"
   xmlns="http://www.w3.org/2000/svg"
   xmlns:svg="http://www.w3.org/2000/svg"><sodipodi:namedview
     id="namedview18"
     pagecolor="#ffffff"
     bordercolor="#000000"
     borderopacity="0.25"
     inkscape:showpageshadow="2"
     inkscape:pageopacity="0.0"
     inkscape:pagecheckerboard="0"
     inkscape:deskcolor="#d1d1d1"
     showgrid="false"
     inkscape:zoom="4.2083333"
     inkscape:cx="54.29703"
     inkscape:cy="99.80198"
     inkscape:window-width="1920"
     inkscape:window-height="1032"
     inkscape:window-x="0"
     inkscape:window-y="0"
     inkscape:window-maximized="1"
     inkscape:current-layer="svg16" /><defs
     id="defs4"><style
       id="style2">.a{fill:none;stroke:#b1b5bd;stroke-linecap:round;stroke-linejoin:round;isolation:isolate;opacity:0.63;}</style></defs><g
     id="g306"
     inkscape:label="template"
     style="display:none"><circle
       class="a"
       cx="96"
       cy="96"
       r="36.5"
       id="circle10"
       style="display:inline" /><rect
       class="a"
       x="32"
       y="8"
       width="128"
       height="176"
       rx="10"
       id="rect12"
       style="display:inline" /><rect
       class="a"
       x="8"
       y="32"
       width="176"
       height="128"
       rx="10"
       id="rect14"
       style="display:inline" /><rect
       class="a"
       x="20"
       y="20"
       width="152"
       height="152"
       rx="10"
       id="rect6"
       style="display:none;opacity:1;fill:#56595b;fill-opacity:1;stroke:none" /></g><circle
     class="a"
     cx="96"
     cy="96"
     r="88"
     id="circle8"
     style="display:inline;opacity:1;fill:#56595b;stroke:none" /><rect
     class="a"
     x="99"
     y="99"
     width="52"
     height="52"
     rx="8.5245905"
     id="rect6-3"
     style="opacity:1;isolation:isolate;fill:#728dbe;fill-opacity:1;stroke:none;stroke-width:0.999997;stroke-linecap:round;stroke-linejoin:round"
     ry="8.5245905" /><g
     style="fill:#000000;stroke-width:0.666667"
     id="g8433"
     transform="matrix(1.5,0,0,1.5,107,107)"
     inkscape:label="wrench"><path
       d="M 0,0 H 24 V 24 H 0 Z"
       fill="none"
       id="path8421"
       style="stroke-width:0.444444" /><path
       d="M 12.09,2.91 C 10.08,0.9 7.07,0.49 4.65,1.67 L 8.28,5.3 c 0.39,0.39 0.39,1.02 0,1.41 L 6.69,8.3 C 6.3,8.7 5.67,8.7 5.28,8.3 L 1.65,4.67 C 0.48,7.1 0.89,10.09 2.9,12.1 c 1.86,1.86 4.58,2.35 6.89,1.48 l 7.96,7.96 c 1.03,1.03 2.69,1.03 3.71,0 1.03,-1.03 1.03,-2.69 0,-3.71 L 13.54,9.9 C 14.46,7.56 13.98,4.8 12.09,2.91 Z"
       id="path8423"
       style="fill:#ffffff;stroke-width:0.666667" /></g><g
     style="fill:#000000;stroke-width:0.666667"
     id="g8418"
     transform="matrix(1.5,0,0,1.5,48.985,107)"
     inkscape:label="sync"><path
       d="m 0.01,0 h 24 v 24 h -24 z"
       fill="none"
       id="path8406"
       style="stroke-width:0.390244" /><path
       d="M 12,4 V 2.21 C 12,1.76 11.46,1.54 11.15,1.86 l -2.8,2.79 c -0.2,0.2 -0.2,0.51 0,0.71 l 2.79,2.79 C 11.46,8.46 12,8.24 12,7.79 V 6 c 3.31,0 6,2.69 6,6 0,0.79 -0.15,1.56 -0.44,2.25 -0.15,0.36 -0.04,0.77 0.23,1.04 0.51,0.51 1.37,0.33 1.64,-0.34 C 19.8,14.04 20,13.04 20,12 20,7.58 16.42,4 12,4 Z m 0,14 C 8.69,18 6,15.31 6,12 6,11.21 6.15,10.44 6.44,9.75 6.59,9.39 6.48,8.98 6.21,8.71 5.7,8.2 4.84,8.38 4.57,9.05 4.2,9.96 4,10.96 4,12 c 0,4.42 3.58,8 8,8 v 1.79 c 0,0.45 0.54,0.67 0.85,0.35 l 2.79,-2.79 c 0.2,-0.2 0.2,-0.51 0,-0.71 L 12.85,15.85 C 12.54,15.54 12,15.76 12,16.21 Z"
       id="path8408"
       style="fill:#d8d8d8;stroke-width:0.666667" /></g><g
     style="fill:#000000;stroke-width:0.666667"
     id="g8404"
     transform="matrix(1.5,0,0,1.5,107,48.25)"
     inkscape:label="battery"><g
       id="g8387"
       style="stroke-width:0.666667"><rect
         fill="none"
         height="24"
         width="24"
         id="rect8383"
         x="0"
         y="0"
         style="stroke-width:0.390244" /><rect
         fill="none"
         height="24"
         width="24"
         id="rect8385"
         x="0"
         y="0"
         style="stroke-width:0.390244" /></g><g
       id="g8391"
       style="fill:#d8d8d8;stroke-width:0.666667"><path
         d="m 17,5 v 16 c 0,0.55 -0.45,1 -1,1 H 8 C 7.45,22 7,21.55 7,21 V 5 C 7,4.45 7.45,4 8,4 h 2 V 3 c 0,-0.55 0.45,-1 1,-1 h 2 c 0.55,0 1,0.45 1,1 v 1 h 2 c 0.55,0 1,0.45 1,1 z M 15,6 H 9 v 4 h 6 z"
         id="path8389"
         style="fill:#d8d8d8;stroke-width:0.666667" /></g></g><g
     style="fill:#000000;stroke-width:0.666667"
     id="g8381"
     transform="matrix(1.5,0,0,1.5,49,49)"
     inkscape:label="lock"><path
       d="M 0,0 H 24 V 24 H 0 Z"
       fill="none"
       id="path8369"
       style="stroke-width:0.390244" /><path
       d="m 12,13 c -1.1,0 -2,0.9 -2,2 0,1.1 0.9,2 2,2 1.1,0 2,-0.9 2,-2 0,-1.1 -0.9,-2 -2,-2 z M 18,8 H 17 V 6 C 17,3.24 14.76,1 12,1 9.72,1 7.73,2.54 7.16,4.75 7.02,5.29 7.34,5.83 7.88,5.97 8.41,6.11 8.96,5.79 9.1,5.25 9.44,3.93 10.63,3 12,3 c 1.65,0 3,1.35 3,3 V 8 H 6 C 4.9,8 4,8.9 4,10 v 10 c 0,1.1 0.9,2 2,2 h 12 c 1.1,0 2,-0.9 2,-2 V 10 C 20,8.9 19.1,8 18,8 Z m 0,11 c 0,0.55 -0.45,1 -1,1 H 7 C 6.45,20 6,19.55 6,19 v -8 c 0,-0.55 0.45,-1 1,-1 h 10 c 0.55,0 1,0.45 1,1 z"
       id="path8371"
       style="fill:#d8d8d8;stroke-width:0.666667" /></g></svg>
